icon/pk/rugby.svg

<svg viewBox="0 0 48 48" fill="none" xmlns="http://www.w3.org/2000/svg" height="1em" width="1em">
  <g clip-path="url(#clip0_12383_14217)">
    <path d="M33.8994 33.8995C43.272 24.5269 46.4378 12.4968 40.9705 7.02941C35.5032 1.56207 23.473 4.7279 14.1004 14.1005C4.72786 23.4731 1.56204 35.5032 7.02938 40.9705C12.4967 46.4379 24.5269 43.2721 33.8994 33.8995Z" stroke="black" stroke-width="4" stroke-linecap="round" stroke-linejoin="round"/>
    <path d="M21.1713 21.1715L26.8281 26.8284" stroke="black" stroke-width="4" stroke-linecap="round" stroke-linejoin="round"/>
    <path d="M25.4144 16.9288L31.0713 22.5857" stroke="black" stroke-width="4" stroke-linecap="round" stroke-linejoin="round"/>
    <path d="M16.9291 25.4142L22.5859 31.071" stroke="black" stroke-width="4" stroke-linecap="round" stroke-linejoin="round"/>
    <path d="M12.6924 35.3196L35.3198 12.6922" stroke="black" stroke-width="4" stroke-linecap="round" stroke-linejoin="round"/>
    <path d="M5.6147 28.2426L19.7568 42.3848" stroke="black" stroke-width="4" stroke-linecap="round" stroke-linejoin="round"/>
    <path d="M28.2426 5.61519L42.3848 19.7573" stroke="black" stroke-width="4" stroke-linecap="round" stroke-linejoin="round"/>
  </g>
  <defs>
    <clipPath id="clip0_12383_14217">
      <rect width="48" height="48" fill="white"/>
    </clipPath>
  </defs>
</svg>

<svg width="48" height="48" fill="none" xmlns="http://www.w3.org/2000/svg"><g clip-path="url(#a)" stroke="#000" stroke-width="4" stroke-linecap="round" stroke-linejoin="round"><path d="M33.9 33.9c9.372-9.373 12.538-21.403 7.07-26.87-5.467-5.468-17.497-2.302-26.87 7.07-9.372 9.373-12.538 21.403-7.07 26.87 5.467 5.468 17.497 2.302 26.87-7.07ZM21.171 21.172l5.657 5.656M25.414 16.929l5.657 5.657M16.93 25.414l5.656 5.657M12.692 35.32 35.32 12.692M5.615 28.243l14.142 14.142M28.243 5.615l14.142 14.142"/></g><defs><clipPath id="a"><path fill="#fff" d="M0 0h48v48H0z"/></clipPath></defs></svg>
